X:58
T: Haragszik a gazda...
K: F
M: 2/4
L: 1/4
gd | gg | f>g | 
ag | fe | d> e | 
fg | dc | B>c | 
dc | BA | G> G | 

